X:1
T:Title
%%score { 1 | ( 2 3 ) }
L:1/8
M:3/4
K:G
V:1 treble nm="Grand Piano"
V:2 bass 
V:3 bass 
V:1
 z2 z[Q:1/4=86] [DGB] [DGB][DGB] | [DFA]3 [CFA] [CFA][CFA] | [B,EG]3 [CEG] [A,DF][G,CE] | %3
[M:2/4] [G,B,D]2 [DG]2 |[M:1/4] [DGB]2 |[M:3/8] [DFA]3 | [DGB][DGB][DGB] | %7
[M:3/4] [DFA]3 [CFA] [CFA][CFA] | [B,EG]3 [CEG] [A,DF][G,CE] |[M:2/4] [G,B,D]2 [DG]2 | %10
[M:1/4] [CDA]2 |[M:9/16] [G,B,DG]4- [G,B,DG]/ |] %12
V:2
 z2 z G, G,G, | D,3 D, D,D, | E,3 C, C,C, |[M:2/4] z2 B,2 |[M:1/4] D,2 |[M:3/8] D,3 | G,G,G, | %7
[M:3/4] D,3 D, D,D, | E,3 C, C,C, |[M:2/4] z2 B,2 |[M:1/4] D,2 |[M:9/16] G,,4- G,,/ |] %12
V:3
 x6 | x6 | x6 |[M:2/4] D,4 |[M:1/4] x2 |[M:3/8] x3 | x3 |[M:3/4] x6 | x6 |[M:2/4] D,4 |[M:1/4] x2 | %11
[M:9/16] x9/2 |] %12

